X: 15122
T: Gie Me A Lass Wi' A Lump O' Land
R: jig
M: 6/8
K: Amixolydian
A2A efg|fed e2e|ABA e2f|g2e dBG|
A2A efg|fed e2f|gag gfe|dBg dBG||
ABA a2g|b2g a2f|gag gfe|dBg dBG|
ABA a2g|b2g a2f|gag gfe|dBg dBG||

